X: 34073
T: Reel De Montmarquette
R: reel
M: 4/4
K: Amajor
E2|:A2 cA BAAB|cecA FGFE|A2 cA BAAB|cfec AEFG|
A2 cA BAAB|cecA FGFE|A2 cA BAcA|1 FBBB AEFG:|2 FBBB AzAc||
|:e2 aa ffaa|ecAc BAAc|e2 aa ffaa|1 ecdB cAAc:|2 edBG Az||

